X: 050003
T: Eleanor Neary's
S: De Danann
Z: B.Black
R: hornpipe
M: 4/4
L: 1/8
K: A
AB | cBcd cBAG | FCFG AGAB | cB (3ABc fecA |\
BcAF E2 AB |
cBcd cBAG | FCFG Aagf | ecdB cABG | A2 GB A2 :|
ED | CA,CE FDFA | (3GAB (3EFG AGAB | cBAc fedc |\
BAGF E2 ED |
CA,CE FDFA | (3GAB (3EFG Aagf | ecdB cABG |\
A2 GB A2 :|
